assets/images/vector.svg

<svg 
          width="52" 
          height="20.3125" fill="none" 
          xmlns="http://www.w3.org/2000/svg">
          <path d="M 48.953125 0 L 3.046875 0 C 1.3640859127044678 0 0 1.3640859127044678 0 3.046875 L 0 17.265625 C 0 18.948414087295532 1.3640859127044678 20.3125 3.046875 20.3125 L 48.953125 20.3125 C 50.63591408729553 20.3125 52 18.948414087295532 52 17.265625 L 52 3.046875 C 52 1.3640859127044678 50.63591408729553 0 48.953125 0 Z M 14.456305146217346 16.11542844772339 C 14.207172326743603 16.373701883479953 13.874960454180837 16.50350022315979 13.542546391487122 16.50350022315979 C 13.225163578987122 16.50350022315979 12.90757828578353 16.3852816876024 12.661187648773193 16.14762544631958 L 8.98828125 12.604210615158081 L 8.98828125 15.23396897315979 C 8.98828125 15.935054898262024 8.419835925102234 16.50350022315979 7.71875 16.50350022315979 C 7.017664074897766 16.50350022315979 6.44921875 15.935054898262024 6.44921875 15.23396897315979 L 6.44921875 5.07771897315979 C 6.44921875 4.376633048057556 7.017664074897766 3.80818772315979 7.71875 3.80818772315979 C 8.419835925102234 3.80818772315979 8.98828125 4.376633048057556 8.98828125 5.07771897315979 L 8.98828125 7.336365699768066 L 12.322984337806702 4.271210193634033 C 12.83912494033575 3.796811755746603 13.642179924994707 3.830430816859007 14.11678147315979 4.346774578094482 C 14.591281466186047 4.862915180623531 14.557460844516754 5.66607017070055 14.041218638420105 6.140570163726807 L 9.89543741941452 9.951296329498291 L 14.424109697341919 14.320414781570435 C 14.928672190755606 14.807102262973785 14.943094231188297 15.610967509448528 14.456305146217346 16.11542844772339 L 14.456305146217346 16.11542844772339 Z M 25.61995267868042 14.616061210632324 C 25.45237455610186 14.81613933853805 25.27037486527115 15.003727152943611 25.079132676124573 15.174047470092773 C 24.102609261870384 16.0437271296978 22.84688989818096 16.503602504730225 21.447968006134033 16.503602504730225 C 17.947920948266983 16.503602504730225 15.100414037704468 13.656094819307327 15.100414037704468 10.155946254730225 C 15.100414037704468 6.655797690153122 17.947920948266983 3.8082900047302246 21.447968006134033 3.8082900047302246 C 22.71993677318096 3.8082900047302246 23.94752299040556 4.1833579279482365 24.99788236618042 4.893178224563599 C 25.57892144843936 5.285717288032174 25.731672314926982 6.074960604310036 25.33903169631958 6.655796527862549 C 24.94659418798983 7.236734006553888 24.15745247527957 7.3894849214702845 23.57641339302063 6.996945858001709 C 22.947436846792698 6.571906801313162 22.211413338780403 6.347352504730225 21.447968006134033 6.347352504730225 C 19.34796018898487 6.347352504730225 17.639476537704468 8.05583693087101 17.639476537704468 10.155946254730225 C 17.639476537704468 12.25605557858944 19.34796018898487 13.964540004730225 21.447968006134033 13.964540004730225 C 22.225327361375093 13.964540004730225 22.878984227776527 13.733485259115696 23.390656113624573 13.27767276763916 C 23.490187365561724 13.189008702524006 23.585555304773152 13.090595089830458 23.674219369888306 12.98486852645874 C 24.124649051576853 12.447501350194216 24.925367154181004 12.377015836536884 25.4626327753067 12.827547073364258 C 25.999999951571226 13.278078310191631 26.070382360368967 14.078795589506626 25.61995267868042 14.616061210632324 L 25.61995267868042 14.616061210632324 Z M 36.8813054561615 16.421842336654663 C 36.73373514879495 16.47749858442694 36.58230436593294 16.50390625 36.43331217765808 16.50390625 C 35.92021842300892 16.504007812504824 35.437188101001084 16.190687876194715 35.24533653259277 15.682265996932983 L 34.61412596702576 14.009732961654663 L 30.23942232131958 14.009732961654663 L 29.601101636886597 15.685923337936401 C 29.351461017504334 16.341103047132492 28.61797544360161 16.669860301539302 27.962795734405518 16.420422792434692 C 27.307616025209427 16.170883728191257 26.97875721566379 15.43739815428853 27.228296279907227 14.782116889953613 L 31.04186773300171 4.7688658237457275 C 31.045523982844315 4.759318949072622 31.049178745393874 4.749874479311984 31.053038120269775 4.740530729293823 C 31.28409281745553 4.175030745565891 31.82836801931262 3.8090002231983817 32.43926644325256 3.80818772315979 L 32.44129657745361 3.80818772315979 C 33.051687225699425 3.80818772315979 33.59575738012791 4.17259356752038 33.82813239097595 4.737077951431274 C 33.832905828312505 4.748656076437328 33.837577034020796 4.760336607112549 33.84204578399658 4.77221941947937 L 37.62098407745361 14.785876512527466 C 37.868390338495374 15.441868711262941 37.537297654896975 16.17423296533525 36.8813054561615 16.421842336654663 L 36.8813054561615 16.421842336654663 Z M 44.28825783729553 16.49506974220276 C 43.1346093788743 16.50146817980567 42.345773082226515 16.50431227684021 41.80210900306702 16.50431227684021 C 40.67009338736534 16.50431227684021 40.60062378225848 16.492328298278153 40.51013159751892 16.476789236068726 C 39.90075659751892 16.37228141911328 39.45520257949829 15.84385097399354 39.45520257949829 15.225538492202759 L 39.45520257949829 5.077821254730225 C 39.45520257949829 4.376735329627991 40.02364790439606 3.8082900047302246 40.72473382949829 3.8082900047302246 C 41.425819754600525 3.8082900047302246 41.99426507949829 4.376735329627991 41.99426507949829 5.077821254730225 L 41.99426507949829 13.96443772315979 C 42.65279635041952 13.963523660699138 43.49129543453455 13.960374429851072 44.2740375995636 13.956007242202759 L 44.28125 13.956007242202759 C 44.97908591851592 13.956007242202759 45.54661574927741 14.519779916852713 45.55057668685913 15.218428373336792 C 45.55463918676833 15.919615853577852 44.98954692110419 16.491108804621035 44.28825783729553 16.49506974220276 L 44.28825783729553 16.49506974220276 Z" fill="rgb(0,0,0)"/>
        </svg>

<svg width="52" height="20.313" fill="none" xmlns="http://www.w3.org/2000/svg"><path d="M48.953 0H3.047A3.047 3.047 0 0 0 0 3.047v14.219a3.047 3.047 0 0 0 3.047 3.047h45.906A3.047 3.047 0 0 0 52 17.265V3.046A3.047 3.047 0 0 0 48.953 0ZM14.456 16.115a1.266 1.266 0 0 1-1.795.033l-3.673-3.544v2.63a1.27 1.27 0 0 1-2.539 0V5.078a1.27 1.27 0 0 1 2.54 0v2.258l3.334-3.065a1.27 1.27 0 1 1 1.718 1.87L9.895 9.95l4.53 4.37a1.27 1.27 0 0 1 .031 1.794Zm11.164-1.499c-.168.2-.35.388-.54.558-.977.87-2.233 1.33-3.632 1.33a6.355 6.355 0 0 1-6.348-6.348c0-3.5 2.848-6.348 6.348-6.348 1.272 0 2.5.375 3.55 1.085a1.27 1.27 0 1 1-1.422 2.104 3.787 3.787 0 0 0-2.128-.65 3.813 3.813 0 0 0-3.809 3.809c0 2.1 1.709 3.809 3.809 3.809.777 0 1.431-.232 1.943-.687.1-.089.195-.187.283-.293a1.27 1.27 0 1 1 1.946 1.631Zm11.261 1.806a1.267 1.267 0 0 1-1.636-.74l-.63-1.672h-4.376l-.638 1.676a1.27 1.27 0 0 1-2.373-.904L31.042 4.77l.011-.028a1.495 1.495 0 0 1 1.386-.933h.002a1.494 1.494 0 0 1 1.401.964l3.779 10.014a1.27 1.27 0 0 1-.74 1.636Zm7.407.073c-1.153.006-1.942.01-2.486.01-1.132 0-1.201-.013-1.292-.028a1.27 1.27 0 0 1-1.055-1.251V5.078a1.27 1.27 0 0 1 2.54 0v8.886c.658 0 1.496-.004 2.279-.008h.007a1.27 1.27 0 0 1 .007 2.54Z" fill="#000"/></svg>
